!!!COM: Bach, Johann Sebastian
!!!CDT: 1685/3//-1750/7/28/
!!!OTL@@DE: Freu' dich sehr, O meine Seele
!!!OTL@EN:  Rejoice greatly, O my soul
!!!OPR@@DE: Cantata: Brich dem Hungrigen dein Brot, BWV 39
!!!ONB: Chorale is at the conclusion to Part II of the Cantata
!!!AGN: 4-Part Chorale
!!!SCT: BH 067
!!!SCT: BWV 39
!!!ONB: In the cantata, the key of the chorale is B-flat
!!!YEC: Copyright 2001 by Craig Stuart Sapp
!!!license: GNU General Public License (http://www.gnu.org/copyleft/gpl.html)
!!!SMA: J.S. Bach Chorale Harmonizations, edited by Ludwig Erk, C.F. Peters
!!!PDT: 1850, 1865
!!!ONB: Harmony and Root analysis done manually by Craig Sapp (not yet proofed)
**kern	**kern	**kern	**kern	**root	**harm
!bass	!tenor	!alto	!sprno	!	!
*Iorgan	*Iorgan	*Iorgan	*Iorgan	*Iorgan	*
*clefF4	*clefF4	*clefG2	*clefG2	*	*
*k[f#]	*k[f#]	*k[f#]	*k[f#]	*k[f#]	*k[f#]
*G:	*G:	*G:	*G:	*G:	*G:
*M4/4	*M4/4	*M4/4	*M4/4	*M4/4	*M4/4
*met(C)	*met(C)	*met(C)	*met(C)	*met(C)	*met(C)
*MM60	*MM60	*MM60	*MM60	*MM60	*MM60
*>[A,A,B]	*>[A,A,B]	*>[A,A,B]	*>[A,A,B]	*>[A,A,B]	*>[A,A,B]
*>A	*>A	*>A	*>A	*>A	*>A
4G	4B	4d	4g	4GG	I
4F#	4A	4d	4a	4DD	Vb
4G	4G	4d	4b	4GG	I
4D	4F#	4d	4a	4DD	V
=2	=2	=2	=2	=2	=2
4E	4G	8d	4g	8EE	vi7
.	.	8c#	.	8CC#	viio7b/V
8F#	4A	4d	4f#	4DD	V
8G	.	.	.	.	.
8A	8A	4c#	4e	8AA	ii
8AA	8G	.	.	8AA	ii7
4D;	4F#;	4A;	4d;	4DD;	V;
=3	=3	=3	=3	=3	=3
4E	4B	4e	4g	4EE	vi
4F#	4A	4d	4a	4DD	Vb
4G	8G	4d	4b	4GG	I
.	8F#	.	.	.	.
4E	4G	4c	4cc	4CC	IVb
=4	=4	=4	=4	=4	=4
8D	4G	4d	4b	4GG	Ic
8C	.	.	.	.	.
4D	4F#	8d	4a	4DD	V
.	.	8c	.	.	.
2GG;	2D;	2B;	2g;	2GG;	I;
=5:|!	=5:|!	=5:|!	=5:|!	=5:|!	=5:|!
4GG	4d	4g	4b	4GG	I
4AA	4c	8f#	4cc	4FF#	viiob
.	.	8e	.	.	.
4BB	8F#	8d	4dd	8BB	iii
.	8G#	16e	.	8EE	Vc/II
.	.	16fn	.	.	.
8C	4A	4e	4cc	4AA	iib
8D	.	.	.	.	.
=6	=6	=6	=6	=6	=6
8E	4Gn	4e	4b	4EE	vi
8D	.	.	.	.	.
4C	4c	4e	4a	4AA	ii
2BB;	2F#;	2d#;	2b;	2BB;	V/VI;
!!linebreak: 2
=7	=7	=7	=7	=7	=7
4BB	8G	4dn	4dd	4GG	I
.	8A	.	.	.	.
4GG	4B	4g	4dd	4GG	I
4C	8c	4g	4ee	4CC	IV
.	8B	.	.	.	.
4D	4A	4f#	4dd	4DD	V
=8	=8	=8	=8	=8	=8
8E	8G	4e	4cc	4CC	IVb
8F#	8A	.	.	.	.
4G	8B	8d	4b	4GG	I
.	8c#	8e	.	.	.
2D;	2d;	2f#;	2a;	2DD;	V;
=9	=9	=9	=9	=9	=9
4G	8d	4g	8b	4GG	I
.	8c	.	8cc	.	.
4GG	4B	4g	4dd	4GG	I
4AA	4A	8g	4cc	4AA	ii7
.	.	8f#	.	.	.
4BB	4D	8g	8b	4GG	Ib
.	.	8f#	8a	.	.
=10	=10	=10	=10	=10	=10
8C	4E	8e	4g	4CC	IV
8BB	.	8d	.	.	.
4AA	4F#	4c	4a	4FF#	viiob
8GG	4G	8B	2b	4GG	I
8AA	.	8c#	.	.	.
4BB	4F#	4d#	.	4BB	V/VI
=11	=11	=11	=11	=11	=11
2EE;	2E;	2e;	2g;	2EE;	vi;
4E	4G	4e	8b	4EE	vi
.	.	.	8cc	.	.
4BB	4G#	4fn	4dd	4GG#	viio7/II
=12	=12	=12	=12	=12	=12
4C	4A	8e	4cc	4AA	iib
.	.	8f#y	.	.	.
4C#	4E	4g	4b	4CC#	viiD7/V
8D	4F#	8f#	4a	4DD	V
8C	.	8e	.	.	.
8BB	4G	4d	4b	4GG	Ib
8GG	.	.	.	.	.
=13	=13	=13	=13	=13	=13
2D	4G	4.d	2a	2DD	V
.	4F#	.	.	.	.
.	.	8c	.	.	.
2GG;	2D;	2B;	2g;	2GG;	I;
==	==	==	==	==	==
*-	*-	*-	*-	*-	*-
!!chor2scor: -l 2 -s 0.6 -o %b.pmx
